X:4923
L:1/8
Q:1/4=130
M:3/4
K:G
 d2 | b2 f2 g>e | dG G2 de/d/ | cd/c/ BG d2 | b2 f2 g>edG G2 de/d/ | cF Ac B/c/B/A/ | G4 :: d2 | 
 d/f/d/f/ ad d2 | d/g/d/g/ bd d2 | d/f/d/f/ ad d2 | d/g/d/g/ bd d2 | b2 f2 g>e | dG G2 de/d/ | 
 cF Ac B/c/B/A/ | G4 :|

